X: 2353
T: SWANSEA HORNPIPE
R: Hornpipe.
%R: hornpipe, reel
B: James Kerr "Merry Melodies" v.2 p.39 #353
Z: 2016 John Chambers <jc:trillian.mit.edu>
M: C
L: 1/8
K: G
|:\
G2g2 gdBG | c2e2 e2g2 | dBdB \
[1,3 edcB | ABcA GFED :|[2,4 ecAF | G2B2 G2z2 :|
|:\
BGBG Bdd2 | ecec egg2 | dBdB \
[1,3 ecAG | ABcA GFED :|[2,4 ecAF | G2B2 G2z2 :|
